X:1
T:Title
%%score { ( 1 2 ) | ( 3 4 5 ) }
L:1/8
M:4/4
K:G
V:1 treble nm="Grand Piano"
V:2 treble 
V:3 treble 
V:4 treble 
V:5 treble 
V:1
 z4 z2[Q:1/4=100] z B | d3 d ^cded | B3 B B2 G2 | [FA]3 [FA] [FA]c[DGB]A |[M:3/4] G6 |[M:1/4] GB | %6
[M:4/4] d3 d ^cded | B3 B B2 G2 | [FA]3 [FA] [FA]c[DGB][FA] | [B,G]6 z2 | d>d dd BGDG | %11
 B>B BB GDB,D | G>G GA B d2 d | d2 ^c2 [Dd]d/d/ [Dd]d | d>d dd BGDG | B>B BB GDB,D | %16
 G>G GA B d2 [EGc] |[M:3/4] [DGB]2 [CDA]2 [G,B,DG]2 |] %18
V:2
 z4 z2 G2 | x8 | x8 | x8 |[M:3/4] x6 |[M:1/4] x2 |[M:4/4] x8 | x8 | x8 | x8 | x8 | x8 | x8 | %13
 z4 F4 | x8 | x8 | x8 |[M:3/4] x6 |] %18
V:3
 z4 z2 B,D | [G,B,G]3 [G,B,G] [G,G]-[G,=B,G]G-[B,G] | [G,DG]3 [G,DG] [G,DG]2[K:bass] [G,B,D]2 | %3
 [D,D]3 [D,D] z A z[K:treble] [CD] |[M:3/4] [G,B,D]6 |[M:1/4] [B,D][DG] | %6
[M:4/4] [G,B,G]3 [G,B,G] [G,G]-[G,=B,G][G,G]-[G,B,G] | [G,DG]3 [G,DG] [G,DG]2[K:bass] [G,B,]2 | %8
 [D,D]3 [D,D] z A z C | G,,6 z2 | [G,B,G]>[G,B,G] [G,B,G][G,B,G] [G,DG][G,B,D] z2 | %11
 [G,DG]>[G,DG] [G,DG][G,DG] [G,B,D][G,B,] z2 | %12
 [G,B,D]>[G,B,D] [G,B,D][G,CD] [G,DG] [G,B,G]2 [G,B,G] | [A,F]2 [A,EG]2[K:bass] z D/D/ z D | %14
 [G,B,G]>[G,B,G] [G,B,G][G,B,G] [G,DG][G,B,D] z2 | [G,DG]>[G,DG] [G,DG][G,DG] [G,B,D][G,B,] z2 | %16
 [G,B,D]>[G,B,D] [G,B,D][G,CD] [G,DG] [G,B,G]2[K:bass] C, |[M:3/4] D,2 D,2 G,,2 |] %18
V:4
 z4 z2 G,2 | z4 ._B,2 .C2 | x6[K:bass] x2 | z4 [D,D]2 D,2[K:treble] |[M:3/4] x6 |[M:1/4] G,2 | %6
[M:4/4] z4 ._B,2 .C2 | x6[K:bass] x2 | z4 [D,D]2 D,2 | x8 | x8 | x8 | x8 | z4[K:bass] z2 C2 | x8 | %15
 x8 | x7[K:bass] x |[M:3/4] x6 |] %18
V:5
 x8 | x8 | x6[K:bass] x2 | x7[K:treble] x |[M:3/4] x6 |[M:1/4] x2 |[M:4/4] x8 | x6[K:bass] x2 | %8
 x8 | x8 | x8 | x8 | x8 | z4[K:bass] D,4 | x8 | x8 | x7[K:bass] x |[M:3/4] x6 |] %18

